X:51
T:Grant Quick Step. VWMLa.051
%%VWML:Anon2-3049-p31-0
F:http://www.vwml.org/record/Anon2/3049/p31
T:Chester Castle,aka. VWMLa.051
T:Grants Rant,aka. VWMLa.051
T:New Hornpipe,aka. VWMLa.051, The
R:march
S:Anon. MS, late 18thC, Vaughan Williams Mem. Library
O:England;Yorkshire
Z:vmp/efdss.Simon Wilson. Reviewed PJH 2008.
M:C|
L:1/8
Q:1/2=90
K:D
|:FG|A3B AFDF|AFdB AFDF|GBGE FAFD|E2E>E E2A2|\
FDFA d3f|edcB A2Bc|d2cB c2B2|A2A>A A2:|
|:cd|e3f ecAc|ecaf ecAc|dfed cedc|B2B>B B2(AB/c/)|\
d3B AFDF|GABc {Bc}d2cB|{B}A2GF EGFE|D6:|
T:Rose. VWMLa.052, The
R:Jig
S:Anon. MS, late 18thC, Vaughan Williams Mem. Library
O:England;Yorkshire
Z:vmp/efdss.Simon Wilson. Reviewed PJH 2008.
M:6/8
L:1/8
Q:3/8=120
K:C
((3G/A/B/)|cGc c2d|ece e2f|gec fdB|c2c c2:|\
|:(e/f/)|gag gec|ded dBG|ABc def|ecc c2:|
